public/build/img/inmueble.svg

<?xml version="1.0"?><svg fill="#000000" xmlns="http://www.w3.org/2000/svg"  viewBox="0 0 50 50" width="50px" height="50px">    <path d="M 25 1.0507812 C 24.7825 1.0507812 24.565859 1.1197656 24.380859 1.2597656 L 1.3808594 19.210938 C 0.95085938 19.550938 0.8709375 20.179141 1.2109375 20.619141 C 1.5509375 21.049141 2.1791406 21.129062 2.6191406 20.789062 L 4 19.710938 L 4 46 C 4 46.55 4.45 47 5 47 L 19 47 L 19 29 L 31 29 L 31 47 L 45 47 C 45.55 47 46 46.55 46 46 L 46 19.710938 L 47.380859 20.789062 C 47.570859 20.929063 47.78 21 48 21 C 48.3 21 48.589063 20.869141 48.789062 20.619141 C 49.129063 20.179141 49.049141 19.550938 48.619141 19.210938 L 25.619141 1.2597656 C 25.434141 1.1197656 25.2175 1.0507812 25 1.0507812 z M 35 5 L 35 6.0507812 L 41 10.730469 L 41 5 L 35 5 z"/></svg>

<svg xmlns="http://www.w3.org/2000/svg" width="50" height="50"><path d="M25 1.05c-.218 0-.434.07-.62.21l-23 17.95c-.43.34-.51.97-.17 1.41.34.43.97.51 1.41.17L4 19.71V46c0 .55.45 1 1 1h14V29h12v18h14c.55 0 1-.45 1-1V19.71l1.38 1.08c.19.14.4.21.62.21.3 0 .59-.13.79-.38a1.01 1.01 0 00-.17-1.41l-23-17.95a1.022 1.022 0 00-.62-.21zM35 5v1.05l6 4.68V5h-6z"/></svg>
